X: 1
T: Father Dollards
M: 4/4
L: 1/8
R: hornpipe
K: Dmaj
|: D2 D2  DFAB | defe dcBA | (3FED AD BDAD | GFED EGFE |
D2 D2 DFAB | defe dcBd | ABFB AGFE | D2 D2 D4 :||
|:e|fd d2 Ad d2 | fdfa bgaf | gfed cdef | g2 bg agfd |
Ad d2 AdFd | Ad d2 AdFd | Adfa gecd | edec d2  :||
